porto-landing/img/burger.svg

<svg xmlns="http://www.w3.org/2000/svg" viewBox="0 0 26 26" fill="#171717" width="26" height="26"><path d="M0 4v2h26V4zm0 8v2h26v-2zm0 8v2h26v-2z"/></svg>

<?xml version="1.0" encoding="UTF-8"?>
<svg xmlns="http://www.w3.org/2000/svg" xmlns:xlink="http://www.w3.org/1999/xlink" viewBox="0 0 26 26" version="1.1" fill="#171717" width="26px" height="26px">
<g id="surface1" fill="#171717">
<path style=" " d="M 0 4 L 0 6 L 26 6 L 26 4 Z M 0 12 L 0 14 L 26 14 L 26 12 Z M 0 20 L 0 22 L 26 22 L 26 20 Z " fill="#171717"/>
</g>
</svg>
